brandFactory_export/3.Masa/Datacloud_3Masa.svg

<?xml version="1.0" encoding="UTF-8"?>
<svg width="24px" height="24px" viewBox="0 0 24 24" version="1.1" xmlns="http://www.w3.org/2000/svg" xmlns:xlink="http://www.w3.org/1999/xlink">
    <title>3.Masa/Datacloud_3Masa</title>
    <g id="Symbols" stroke="none" stroke-width="1" fill="none" fill-rule="evenodd">
        <g id="3.Masa/Datacloud_3Masa" fill="#5CB615" fill-rule="nonzero">
            <path d="M17.3277311,15.1394958 C18.487395,15.112605 22.1512605,14.7831933 22.1512605,10.4470588 C22.1512605,6.38319328 18.8705882,5.84201681 17.4655462,5.80504202 C17.1428571,5.79495798 16.8571429,5.58655462 16.7764706,5.27731092 C15.7747899,1.62352941 11.5428571,1.44201681 10.7058824,1.44201681 C9.22352941,1.44201681 4.41008403,1.85546218 4.41008403,7.25714286 L4.41008403,7.39159664 C4.41008403,7.71092437 4.19495798,7.99663866 3.8789916,8.08403361 C2.27563025,8.52773109 1.47226891,9.6907563 1.47226891,11.5361345 C1.47226891,14.8336134 4.08403361,15.189916 5.21344538,15.189916 L6.28571429,15.1798319 L6.29579832,15.1798319 C6.35630252,15.1798319 6.38319328,15.1798319 6.42352941,15.189916 C6.79663866,15.4487395 7.27731092,15.6806723 7.87563025,15.8521008 C8.88739496,16.1512605 10.2218487,16.3159664 11.6268908,16.3159664 C13.0319328,16.3159664 14.3563025,16.1512605 15.3680672,15.8521008 C15.9462185,15.687395 16.4302521,15.4588235 16.8033613,15.1798319 L17.3277311,15.1394958 Z M18.0336134,4.40336134 C20.8235294,4.65210084 23.6235294,6.35630252 23.6235294,10.4504202 C23.6235294,14.9579832 20.2151261,16.5647059 17.297479,16.5647059 L16.8067227,16.5647059 L16.8067227,18.2084034 C16.6285714,18.5277311 16.1176471,18.9478992 15.1764706,19.2268908 C14.2218487,19.5159664 12.9680672,19.6705882 11.6302521,19.6705882 C10.2857143,19.6705882 9.02857143,19.5193277 8.07394958,19.2268908 C7.2302521,18.9781513 6.61176471,18.6016807 6.42352941,18.2184874 L6.42352941,16.594958 C6.38319328,16.605042 6.33613445,16.6252101 6.29579832,16.6252101 L5.21680672,16.6352941 C2.69243697,16.6352941 0,15.297479 0,11.5394958 C0,8.59831933 1.65042017,7.37815126 2.93781513,6.87731092 C3.17310924,0.342857143 9.43193277,0.00332514118 10.7058824,0.00332514118 C11.687395,1.82926591e-15 16.5411765,0.221848739 18.0336134,4.40336134 Z M8.07731092,11.189916 C7.1697479,10.9243697 6.62184874,10.5613445 6.47394958,10.1445378 C6.47394958,10.1378151 6.47394958,10.1378151 6.46722689,10.1310924 C6.61512605,9.71428571 7.16302521,9.34453782 8.06386555,9.0789916 C9.01848739,8.8 10.2823529,8.64201681 11.6201681,8.64201681 C12.9613445,8.64201681 14.2218487,8.8 15.1697479,9.0789916 C16.1176471,9.35798319 16.6554622,9.72436975 16.7731092,10.1647059 C16.7731092,10.1647059 16.7663866,10.1714286 16.7663866,10.1781513 C16.605042,10.5815126 16.0605042,10.9277311 15.1764706,11.189916 C14.2218487,11.4689076 12.9647059,11.6268908 11.6268908,11.6268908 C10.2857143,11.6268908 9.03193277,11.4722689 8.07731092,11.189916 L8.07731092,11.189916 Z M11.6268908,15.6336134 C10.2890756,15.6336134 9.03193277,15.4823529 8.07731092,15.2033613 C7.22689076,14.9512605 6.61176471,14.5680672 6.42352941,14.1848739 L6.42352941,11.1630252 C6.77310924,11.4352941 7.25378151,11.6672269 7.87563025,11.8453782 C8.89411765,12.1445378 10.2252101,12.3092437 11.6268908,12.3092437 C13.0285714,12.3092437 14.3596639,12.1445378 15.3781513,11.8453782 C15.9865546,11.6672269 16.4605042,11.4487395 16.8067227,11.1764706 L16.8067227,14.1781513 C16.6352941,14.5008403 16.1176471,14.9210084 15.1764706,15.2033613 C14.2252101,15.4823529 12.9647059,15.6336134 11.6268908,15.6336134 Z M11.6268908,20.3462185 C13.0352941,20.3462185 14.3663866,20.1815126 15.3781513,19.8823529 C15.9495798,19.7176471 16.4369748,19.4789916 16.8067227,19.2 L16.8067227,21.892437 C16.8067227,22.4268908 16.2554622,22.8638655 15.1697479,23.1831933 C14.2151261,23.4655462 12.9546218,23.6201681 11.6201681,23.6201681 C10.2890756,23.6201681 9.02857143,23.4621849 8.06386555,23.1831933 C6.97815126,22.8638655 6.42689076,22.4268908 6.42689076,21.892437 L6.42689076,19.2033613 C6.78991597,19.4689076 7.28403361,19.7008403 7.8789916,19.8789916 C8.8907563,20.1848739 10.2252101,20.3462185 11.6268908,20.3462185 L11.6268908,20.3462185 Z" id="Datacloud_3Masa"></path>
        </g>
    </g>
</svg>

<svg width="24" height="24" viewBox="0 0 24 24" xmlns="http://www.w3.org/2000/svg"><path d="M17.328 15.14c1.16-.027 4.823-.357 4.823-4.693 0-4.064-3.28-4.605-4.685-4.642a.725.725 0 01-.69-.528c-1.001-3.653-5.233-3.835-6.07-3.835-1.482 0-6.296.413-6.296 5.815v.135c0 .319-.215.605-.531.692-1.603.444-2.407 1.607-2.407 3.452 0 3.298 2.612 3.654 3.741 3.654l1.073-.01h.01c.06 0 .087 0 .128.01.373.259.853.49 1.452.662 1.011.3 2.346.464 3.75.464 1.406 0 2.73-.165 3.742-.464.578-.165 1.062-.393 1.435-.672l.525-.04zm.706-10.737c2.79.25 5.59 1.953 5.59 6.047 0 4.508-3.409 6.115-6.327 6.115h-.49v1.643c-.178.32-.69.74-1.63 1.019-.955.289-2.209.444-3.547.444-1.344 0-2.601-.152-3.556-.444-.844-.249-1.462-.625-1.65-1.009v-1.623c-.04.01-.088.03-.128.03l-1.08.01C2.693 16.635 0 15.297 0 11.54 0 8.6 1.65 7.38 2.938 6.877 3.173.343 9.432.003 10.706.003c.981-.003 5.835.219 7.328 4.4zM8.077 11.19c-.907-.266-1.455-.629-1.603-1.045 0-.007 0-.007-.007-.014.148-.417.696-.786 1.597-1.052.954-.279 2.218-.437 3.556-.437 1.341 0 2.602.158 3.55.437s1.485.645 1.603 1.086c0 0-.007.006-.007.013-.161.404-.705.75-1.59 1.012-.954.279-2.211.437-3.55.437-1.34 0-2.594-.155-3.549-.437zm3.55 4.444c-1.338 0-2.595-.152-3.55-.43-.85-.253-1.465-.636-1.653-1.02v-3.021c.35.272.83.504 1.452.682 1.018.3 2.35.464 3.75.464 1.403 0 2.734-.164 3.752-.464.609-.178 1.083-.396 1.429-.669v3.002c-.172.323-.69.743-1.63 1.025-.952.28-2.212.43-3.55.43zm0 4.712c1.408 0 2.74-.164 3.751-.464.572-.164 1.059-.403 1.429-.682v2.692c0 .535-.552.972-1.637 1.291-.955.283-2.215.437-3.55.437-1.33 0-2.591-.158-3.556-.437-1.086-.32-1.637-.756-1.637-1.29v-2.69c.363.266.857.498 1.452.676 1.012.306 2.346.467 3.748.467z" fill="#5CB615" fill-rule="nonzero"/></svg>
